X:239
T:Anglais efter Sjöström
T:(SvL Småland 239)
R:Anglais
R:Engelska
O:Hallaryd, Småland
O:Markaryd, Småland
S:Nils Gustaf Lavin
B:Svenska Låtar Småland
N:SvL: Efter en spelman och skomakare Sjöström från Hallaryd socken.
Z:Till abc Jonas Brunskog
M:2/4
L:1/8
K:D
Ad df|e/(d/c/)d/ e2|A/c/e A/(c/e/)g/|1fd dd:|2fd d>f||
|:a>f d>g|b/b/b/a/ g2|[ce]/[ce]/[ce] A/c/e/g/|1fd dd:|2fd [Dd]2||

